X:75
T:Axuntando (CT 163) (Arrg.)
R:Danza
C:Tradicional
S:Msica Tradicional Asturiana, (C) Tello & Tito. Asturies, 2001.
S:http://pagina.de/MusTradAst <telloytito@asturies.org>
N:Danza, transcrita en Llamo, ayuntamiento de Riosa.
N:Intervienen hombres exclusivamente.
A:Asturies
G:Arrg.
O:Llamo (Riosa)
Z:Cancioneru de Torner 163
M:2/4
L:1/8
Q:3/8=112
K:G
Bd|:"G"d3/2c/2 Bd|"G"d3/2c/2 Bc|"Am"c3/2B/2 BA|"G"G2 G2-|
"G"Gz "D"FA|"D"A3/2G/2 FA|"D"A3/2G/2 FA|"D"A3/2G/2 FA
|"G"G2 "G"G2-|[1 "G"Gz Bd:|[2 "G"G z3||
W:Axuntando y atropando
W:axunt un zurrn de queisu
W:y el lunes por la maana
W:fume vendelu al Infiestu.
W:
W:Pas por Infiestu arra
W:con mi sombreiru atrincheu.
W:"Posa el sombreiru, Pachn,
W:mira que tamos nel templu".
W:
W:Alc la vista pa arra
W:y era verd, por San Pedru;
W:vi los santos alrreor
W:queriendo comeme el queisu.
W:
